static/characters/youkanman/back-sitting.svg

<?xml version="1.0" encoding="UTF-8" standalone="no"?>
<svg
   xmlns:dc="http://purl.org/dc/elements/1.1/"
   xmlns:cc="http://creativecommons.org/ns#"
   xmlns:rdf="http://www.w3.org/1999/02/22-rdf-syntax-ns#"
   xmlns:svg="http://www.w3.org/2000/svg"
   xmlns="http://www.w3.org/2000/svg"
   xmlns:sodipodi="http://sodipodi.sourceforge.net/DTD/sodipodi-0.dtd"
   xmlns:inkscape="http://www.inkscape.org/namespaces/inkscape"
   height="182"
   width="160"
   viewBox="0 0 160 182"
   version="1.1"
   xml:space="preserve"
   style="fill-rule:evenodd;clip-rule:evenodd;stroke-linecap:round;stroke-linejoin:round;stroke-miterlimit:1.5;"
   id="svg4398"
   sodipodi:docname="back-sitting.svg"
   inkscape:version="1.0.2-2 (e86c870879, 2021-01-15)"><metadata
   id="metadata4404"><rdf:RDF><cc:Work
       rdf:about=""><dc:format>image/svg+xml</dc:format><dc:type
         rdf:resource="http://purl.org/dc/dcmitype/StillImage" /></cc:Work></rdf:RDF></metadata><defs
   id="defs4402" /><sodipodi:namedview
   pagecolor="#ffffff"
   bordercolor="#666666"
   borderopacity="1"
   objecttolerance="10"
   gridtolerance="10"
   guidetolerance="10"
   inkscape:pageopacity="0"
   inkscape:pageshadow="2"
   inkscape:window-width="1920"
   inkscape:window-height="1027"
   id="namedview4400"
   showgrid="false"
   inkscape:zoom="4.5989011"
   inkscape:cx="80"
   inkscape:cy="91"
   inkscape:window-x="-8"
   inkscape:window-y="-8"
   inkscape:window-maximized="1"
   inkscape:current-layer="svg4398" />
    <g
   id="BackSitting"
   transform="matrix(0.0483507,-0.0241754,0,0.0483507,37.1237,67.622668)">
        <g
   transform="matrix(-7.46545,-3.73272,0,7.46545,5810.11,-2222.19)"
   id="g4287">
            <path
   d="m 542.173,844.83 0.977,-139.625 145.559,-72.779 45.537,22.827 1.221,137.42 -148.739,76.039 z"
   style="fill:#6c4444;stroke:#000000;stroke-width:2.77px"
   id="path4285" />
        </g>
        <g
   transform="matrix(-1,-1,0,1,2453.9,1058.21)"
   id="g4291">
            <rect
   x="1566"
   y="856.51703"
   width="86.762001"
   height="86.762001"
   style="fill:#5e3b3b;fill-rule:nonzero"
   id="rect4289" />
        </g>
        <g
   transform="matrix(-1,-1,0,1,2365.54,959.052)"
   id="g4295">
            <rect
   x="791.19299"
   y="856.51703"
   width="86.762001"
   height="86.762001"
   style="fill:#5e3b3b;fill-rule:nonzero"
   id="rect4293" />
        </g>
        <g
   transform="matrix(-1,-1,0,1,2420.09,1047.9)"
   id="g4299">
            <path
   d="m 1222.99,1088.56 -185.63,-336.965 38.33,-22.195 46.41,82.727 h 201.77 l 46.41,-82.727 38.34,22.195 z m -80.71,-234.061 80.71,143.258 80.7,-143.258 z"
   style="fill:#5e3b3b;fill-rule:nonzero"
   id="path4297" />
        </g>
        <g
   transform="matrix(-1,-1,0,1,2234.58,1013.11)"
   id="g4303">
            <path
   d="m 547.667,1527.12 c 151.871,176.6 329.653,364.07 373.368,158.63 1.698,-13.06 9.491,-36.86 36.473,-15.81 2.802,2.18 19.918,32.33 19.918,32.33 -36.519,130.59 -94.101,158.94 -195.456,100.89 -33.193,-19.02 -247.901,-222.58 -280.698,-281.39"
   style="fill:#5e3b3b;fill-rule:nonzero"
   id="path4301" />
        </g>
        <g
   transform="matrix(-1,-1,0,1,1806.11,582.688)"
   id="g4307">
            <path
   d="m 547.667,1527.12 c 151.871,176.6 329.653,364.07 373.368,158.63 1.698,-13.06 9.491,-36.86 36.473,-15.81 2.802,2.18 19.918,32.33 19.918,32.33 -36.519,130.59 -94.101,158.94 -195.456,100.89 -33.193,-19.02 -247.901,-222.58 -280.698,-281.39"
   style="fill:#5e3b3b;fill-rule:nonzero"
   id="path4305" />
        </g>
        <g
   transform="matrix(-1,-1,0,1,2103.8,1062.98)"
   id="g4311">
            <path
   d="m 702.177,596.153 512.733,2.672 V 640.62 H 700.395 Z"
   style="fill-rule:nonzero"
   id="path4309" />
        </g>
        <g
   transform="matrix(-1,-1,0,1,1903.88,544.921)"
   id="g4315">
            <path
   d="m 702.177,596.153 512.733,2.672 V 640.62 H 700.395 Z"
   style="fill-rule:nonzero"
   id="path4313" />
        </g>
        <g
   transform="matrix(-1,-1,0,1,2417.69,1053.76)"
   id="g4319">
            <path
   d="m 702.177,596.153 512.733,2.672 V 640.62 H 700.395 Z"
   style="fill-rule:nonzero"
   id="path4317" />
        </g>
        <g
   transform="matrix(-1,-1,0,1,2432.37,2096.48)"
   id="g4323">
            <path
   d="m 702.177,596.153 512.733,2.672 V 640.62 H 700.395 Z"
   style="fill:#5e3b3b;fill-rule:nonzero"
   id="path4321" />
        </g>
        <g
   transform="matrix(-1,-1,0,1,1917.85,1581.96)"
   id="g4327">
            <path
   d="m 702.177,596.153 512.733,2.672 V 640.62 H 700.395 Z"
   style="fill:#5e3b3b;fill-rule:nonzero"
   id="path4325" />
        </g>
        <g
   transform="matrix(-0.591355,-0.00377795,0,1,2169.73,389.419)"
   id="g4331">
            <path
   d="m 702.177,596.153 512.733,2.672 V 640.62 H 700.395 Z"
   style="fill-rule:nonzero"
   id="path4329" />
        </g>
        <g
   transform="matrix(-0.591355,-0.00377795,0,1,1067.38,-686.905)"
   id="g4335">
            <path
   d="m 702.177,596.153 512.733,2.672 V 640.62 H 700.395 Z"
   style="fill-rule:nonzero"
   id="path4333" />
        </g>
        <g
   transform="matrix(-0.591355,-0.00377795,0,1,1082.77,350.13)"
   id="g4339">
            <path
   d="m 702.177,596.153 512.733,2.672 V 640.62 H 700.395 Z"
   style="fill:#5e3b3b;fill-rule:nonzero"
   id="path4337" />
        </g>
        <g
   transform="matrix(-0.591355,-0.00377795,0,1,2185.72,1453.08)"
   id="g4343">
            <path
   d="m 702.177,596.153 512.733,2.672 V 640.62 H 700.395 Z"
   style="fill-rule:nonzero"
   id="path4341" />
        </g>
        <g
   transform="matrix(-1,-1,0,1,2075.84,1035.91)"
   id="g4347">
            <rect
   x="625.73999"
   y="644.65601"
   width="40.354"
   height="512.50201"
   style="fill-rule:nonzero"
   id="rect4345" />
        </g>
        <g
   transform="matrix(-1,-1,0,1,2406.07,1538.54)"
   id="g4351">
            <rect
   x="625.73999"
   y="644.65601"
   width="40.354"
   height="512.50201"
   style="fill-rule:nonzero"
   id="rect4349" />
        </g>
        <g
   transform="matrix(-1,-1,0,1,2403.44,1018.59)"
   id="g4355">
            <rect
   x="625.73999"
   y="644.65601"
   width="40.354"
   height="512.50201"
   style="fill-rule:nonzero"
   id="rect4353" />
        </g>
        <g
   transform="matrix(-1,-1,0,1,1314.51,-27.4928)"
   id="g4359">
            <rect
   x="625.73999"
   y="644.65601"
   width="40.354"
   height="512.50201"
   style="fill:#5e3b3b;fill-rule:nonzero"
   id="rect4357" />
        </g>
        <g
   transform="matrix(-1,-1,0,1,1314.51,460.837)"
   id="g4363">
            <rect
   x="625.73999"
   y="644.65601"
   width="40.354"
   height="512.50201"
   style="fill:#5e3b3b;fill-rule:nonzero"
   id="rect4361" />
        </g>
        <g
   transform="matrix(-7.46545,-3.73272,0,7.46545,4703.13,-3274.48)"
   id="g4367">
            <path
   d="m 559.503,766.807 2.767,-5.108 4.712,4.898 c -0.295,4.315 0.67,9.371 1.077,13.063 2.439,22.149 -1.545,55.035 -15.382,57.065 0,0 -4.732,-5.319 -1.971,-7.119 8.513,-5.55 16.255,-28.52 8.797,-62.799 z"
   style="fill:#5e3b3b"
   id="path4365" />
        </g>
        <g
   transform="matrix(-1,-1,0,1,2112.37,1076.47)"
   id="g4371">
            <path
   d="m 1216.93,597.043 516.3,2.673 -1.78,40.904 h -514.52 z"
   style="fill-rule:nonzero"
   id="path4369" />
        </g>
        <g
   transform="matrix(-7.46545,-3.73272,0,7.46545,5810.11,-2222.19)"
   id="g4375">
            <path
   d="m 558.175,766.92 4.095,-5.221 4.712,4.898 c -0.295,4.315 0.67,9.371 1.077,13.063 2.439,22.149 -1.545,55.035 -15.382,57.065 0,0 -3.283,-6.193 -0.833,-8.399 6.924,-6.234 15.586,-24.7 6.331,-61.406 z"
   id="path4373" />
        </g>
        <g
   transform="matrix(-1,-1,0,1,2117.1,1076.28)"
   id="g4379">
            <rect
   x="1779.88"
   y="644.65601"
   width="40.354"
   height="512.50201"
   style="fill-rule:nonzero"
   id="rect4377" />
        </g>
        <g
   transform="matrix(-1,-1,0,1,2033.47,982.715)"
   id="g4383">
            <rect
   x="583.367"
   y="1161.1899"
   width="40.354"
   height="512.50201"
   style="fill-rule:nonzero"
   id="rect4381" />
        </g>
        <g
   transform="matrix(-1,-1,0,1,2061.69,1026.41)"
   id="g4387">
            <path
   d="M 664.076,1651.5 H 1178.6 v 43.58 l -514.524,-3.57 z"
   style="fill-rule:nonzero"
   id="path4385" />
        </g>
        <g
   transform="matrix(-1,-1,0,1,2049.52,1007.09)"
   id="g4391">
            <path
   d="m 1180.61,1651.5 h 514.52 l -3.56,36.45 -505.61,8.02 z"
   style="fill-rule:nonzero"
   id="path4389" />
        </g>
        <g
   transform="matrix(-1,-1,0,1,2077.2,1034.17)"
   id="g4395">
            <rect
   x="1737.51"
   y="1161.1899"
   width="40.354"
   height="512.50201"
   style="fill-rule:nonzero"
   id="rect4393" />
        </g>
    </g>
</svg>

<?xml version="1.0" encoding="UTF-8" standalone="no"?>
<!DOCTYPE svg PUBLIC "-//W3C//DTD SVG 1.1//EN" "http://www.w3.org/Graphics/SVG/1.1/DTD/svg11.dtd">
<svg height="182" width="160" viewBox="0 0 160 182" version="1.1" xmlns="http://www.w3.org/2000/svg" xmlns:xlink="http://www.w3.org/1999/xlink" xml:space="preserve" xmlns:serif="http://www.serif.com/" style="fill-rule:evenodd;clip-rule:evenodd;stroke-linecap:round;stroke-linejoin:round;stroke-miterlimit:1.5;">
    <g id="BackSitting" transform="matrix(0.0483507,-0.0241754,0,0.0483507,37.1237,73.7971)">
        <g transform="matrix(-7.46545,-3.73272,0,7.46545,5810.11,-2222.19)">
            <path d="M542.173,844.83L543.15,705.205L688.709,632.426L734.246,655.253L735.467,792.673L586.728,868.712L542.173,844.83Z" style="fill:rgb(108,68,68);stroke:black;stroke-width:2.77px;"/>
        </g>
        <g transform="matrix(-1,-1,-4.44089e-16,1,2453.9,1058.21)">
            <rect x="1566" y="856.517" width="86.762" height="86.762" style="fill:rgb(94,59,59);fill-rule:nonzero;"/>
        </g>
        <g transform="matrix(-1,-1,-4.44089e-16,1,2365.54,959.052)">
            <rect x="791.193" y="856.517" width="86.762" height="86.762" style="fill:rgb(94,59,59);fill-rule:nonzero;"/>
        </g>
        <g transform="matrix(-1,-1,-4.44089e-16,1,2420.09,1047.9)">
            <path d="M1222.99,1088.56L1037.36,751.595L1075.69,729.4L1122.1,812.127L1323.87,812.127L1370.28,729.4L1408.62,751.595L1222.99,1088.56ZM1142.28,854.499L1222.99,997.757L1303.69,854.499L1142.28,854.499Z" style="fill:rgb(94,59,59);fill-rule:nonzero;"/>
        </g>
        <g transform="matrix(-1,-1,0,1,2234.58,1013.11)">
            <path d="M547.667,1527.12C699.538,1703.72 877.32,1891.19 921.035,1685.75C922.733,1672.69 930.526,1648.89 957.508,1669.94C960.31,1672.12 977.426,1702.27 977.426,1702.27C940.907,1832.86 883.325,1861.21 781.97,1803.16C748.777,1784.14 534.069,1580.58 501.272,1521.77" style="fill:rgb(94,59,59);fill-rule:nonzero;"/>
        </g>
        <g transform="matrix(-1,-1,0,1,1806.11,582.688)">
            <path d="M547.667,1527.12C699.538,1703.72 877.32,1891.19 921.035,1685.75C922.733,1672.69 930.526,1648.89 957.508,1669.94C960.31,1672.12 977.426,1702.27 977.426,1702.27C940.907,1832.86 883.325,1861.21 781.97,1803.16C748.777,1784.14 534.069,1580.58 501.272,1521.77" style="fill:rgb(94,59,59);fill-rule:nonzero;"/>
        </g>
        <g transform="matrix(-1,-1,0,1,2103.8,1062.98)">
            <path d="M702.177,596.153L1214.91,598.825L1214.91,640.62L700.395,640.62L702.177,596.153Z" style="fill-rule:nonzero;"/>
        </g>
        <g transform="matrix(-1,-1,0,1,1903.88,544.921)">
            <path d="M702.177,596.153L1214.91,598.825L1214.91,640.62L700.395,640.62L702.177,596.153Z" style="fill-rule:nonzero;"/>
        </g>
        <g transform="matrix(-1,-1,0,1,2417.69,1053.76)">
            <path d="M702.177,596.153L1214.91,598.825L1214.91,640.62L700.395,640.62L702.177,596.153Z" style="fill-rule:nonzero;"/>
        </g>
        <g transform="matrix(-1,-1,0,1,2432.37,2096.48)">
            <path d="M702.177,596.153L1214.91,598.825L1214.91,640.62L700.395,640.62L702.177,596.153Z" style="fill:rgb(94,59,59);fill-rule:nonzero;"/>
        </g>
        <g transform="matrix(-1,-1,0,1,1917.85,1581.96)">
            <path d="M702.177,596.153L1214.91,598.825L1214.91,640.62L700.395,640.62L702.177,596.153Z" style="fill:rgb(94,59,59);fill-rule:nonzero;"/>
        </g>
        <g transform="matrix(-0.591355,-0.00377795,-2.62615e-16,1,2169.73,389.419)">
            <path d="M702.177,596.153L1214.91,598.825L1214.91,640.62L700.395,640.62L702.177,596.153Z" style="fill-rule:nonzero;"/>
        </g>
        <g transform="matrix(-0.591355,-0.00377795,-2.62615e-16,1,1067.38,-686.905)">
            <path d="M702.177,596.153L1214.91,598.825L1214.91,640.62L700.395,640.62L702.177,596.153Z" style="fill-rule:nonzero;"/>
        </g>
        <g transform="matrix(-0.591355,-0.00377795,-2.62615e-16,1,1082.77,350.13)">
            <path d="M702.177,596.153L1214.91,598.825L1214.91,640.62L700.395,640.62L702.177,596.153Z" style="fill:rgb(94,59,59);fill-rule:nonzero;"/>
        </g>
        <g transform="matrix(-0.591355,-0.00377795,-2.62615e-16,1,2185.72,1453.08)">
            <path d="M702.177,596.153L1214.91,598.825L1214.91,640.62L700.395,640.62L702.177,596.153Z" style="fill-rule:nonzero;"/>
        </g>
        <g transform="matrix(-1,-1,0,1,2075.84,1035.91)">
            <rect x="625.74" y="644.656" width="40.354" height="512.502" style="fill-rule:nonzero;"/>
        </g>
        <g transform="matrix(-1,-1,0,1,2406.07,1538.54)">
            <rect x="625.74" y="644.656" width="40.354" height="512.502" style="fill-rule:nonzero;"/>
        </g>
        <g transform="matrix(-1,-1,0,1,2403.44,1018.59)">
            <rect x="625.74" y="644.656" width="40.354" height="512.502" style="fill-rule:nonzero;"/>
        </g>
        <g transform="matrix(-1,-1,2.76056e-31,1,1314.51,-27.4928)">
            <rect x="625.74" y="644.656" width="40.354" height="512.502" style="fill:rgb(94,59,59);fill-rule:nonzero;"/>
        </g>
        <g transform="matrix(-1,-1,0,1,1314.51,460.837)">
            <rect x="625.74" y="644.656" width="40.354" height="512.502" style="fill:rgb(94,59,59);fill-rule:nonzero;"/>
        </g>
        <g transform="matrix(-7.46545,-3.73272,0,7.46545,4703.13,-3274.48)">
            <path d="M559.503,766.807L562.27,761.699L566.982,766.597C566.687,770.912 567.652,775.968 568.059,779.66C570.498,801.809 566.514,834.695 552.677,836.725C552.677,836.725 547.945,831.406 550.706,829.606C559.219,824.056 566.961,801.086 559.503,766.807Z" style="fill:rgb(94,59,59);"/>
        </g>
        <g transform="matrix(-1,-1,0,1,2112.37,1076.47)">
            <path d="M1216.93,597.043L1733.23,599.716L1731.45,640.62L1216.93,640.62L1216.93,597.043Z" style="fill-rule:nonzero;"/>
        </g>
        <g transform="matrix(-7.46545,-3.73272,0,7.46545,5810.11,-2222.19)">
            <path d="M558.175,766.92L562.27,761.699L566.982,766.597C566.687,770.912 567.652,775.968 568.059,779.66C570.498,801.809 566.514,834.695 552.677,836.725C552.677,836.725 549.394,830.532 551.844,828.326C558.768,822.092 567.43,803.626 558.175,766.92Z"/>
        </g>
        <g transform="matrix(-1,-1,0,1,2117.1,1076.28)">
            <rect x="1779.88" y="644.656" width="40.354" height="512.502" style="fill-rule:nonzero;"/>
        </g>
        <g transform="matrix(-1,-1,0,1,2033.47,982.715)">
            <rect x="583.367" y="1161.19" width="40.354" height="512.502" style="fill-rule:nonzero;"/>
        </g>
        <g transform="matrix(-1,-1,0,1,2061.69,1026.41)">
            <path d="M664.076,1651.5L1178.6,1651.5L1178.6,1695.08L664.076,1691.51L664.076,1651.5Z" style="fill-rule:nonzero;"/>
        </g>
        <g transform="matrix(-1,-1,0,1,2049.52,1007.09)">
            <path d="M1180.61,1651.5L1695.13,1651.5L1691.57,1687.95L1185.96,1695.97L1180.61,1651.5Z" style="fill-rule:nonzero;"/>
        </g>
        <g transform="matrix(-1,-1,0,1,2077.2,1034.17)">
            <rect x="1737.51" y="1161.19" width="40.354" height="512.502" style="fill-rule:nonzero;"/>
        </g>
    </g>
</svg>
